polaris-icons/icons/newicons/AddCodeMajor.svg

<svg width="20" height="20" viewBox="0 0 20 20" fill="none" xmlns="http://www.w3.org/2000/svg">
<path d="M14.1989 12.7413C13.9179 13.0457 13.9369 13.5202 14.2413 13.8011C14.5457 14.0821 15.0202 14.0631 15.3011 13.7587L18.3011 10.5087C18.5663 10.2214 18.5663 9.77859 18.3011 9.49129L15.3011 6.24129C15.0202 5.93693 14.5457 5.91795 14.2413 6.1989C13.9369 6.47985 13.9179 6.95435 14.1989 7.25871L16.7293 10L14.1989 12.7413Z" fill="black"/>
<path d="M5.8011 7.25872C6.08205 6.95436 6.06307 6.47986 5.75871 6.19891C5.45434 5.91796 4.97985 5.93694 4.69889 6.2413L1.69889 9.4913C1.4337 9.7786 1.4337 10.2214 1.69889 10.5087L4.69889 13.7587C4.97985 14.0631 5.45434 14.0821 5.75871 13.8011C6.06307 13.5202 6.08205 13.0457 5.8011 12.7413L3.27068 10L5.8011 7.25872Z" fill="black"/>
<path d="M10 6.75001C10.4142 6.75001 10.75 7.08579 10.75 7.50001V9.25001H12.5C12.9142 9.25001 13.25 9.58579 13.25 10C13.25 10.4142 12.9142 10.75 12.5 10.75H10.75V12.5C10.75 12.9142 10.4142 13.25 10 13.25C9.58579 13.25 9.25 12.9142 9.25 12.5V10.75H7.5C7.08579 10.75 6.75 10.4142 6.75 10C6.75 9.58579 7.08579 9.25001 7.5 9.25001H9.25V7.50001C9.25 7.08579 9.58579 6.75001 10 6.75001Z" fill="black"/>
</svg>

<svg viewBox="0 0 20 20" fill="none" xmlns="http://www.w3.org/2000/svg"><path d="M14.199 12.741a.75.75 0 1 0 1.102 1.018l3-3.25a.75.75 0 0 0 0-1.018l-3-3.25a.75.75 0 1 0-1.102 1.018l2.53 2.741-2.53 2.741Z" fill="#000"/><path d="M5.801 7.259a.75.75 0 0 0-1.102-1.018l-3 3.25a.75.75 0 0 0 0 1.018l3 3.25a.75.75 0 1 0 1.102-1.018l-2.53-2.741 2.53-2.741Z" fill="#000"/><path d="M10 6.75a.75.75 0 0 1 .75.75v1.75h1.75a.75.75 0 0 1 0 1.5h-1.75v1.75a.75.75 0 0 1-1.5 0v-1.75h-1.75a.75.75 0 0 1 0-1.5h1.75v-1.75a.75.75 0 0 1 .75-.75Z" fill="#000"/></svg>
